assets/svg/icon-ui-dashboard-dark-gray.svg

<?xml version="1.0" encoding="UTF-8" standalone="no"?>
<svg width="40px" height="32px" viewBox="0 0 40 32" version="1.1" xmlns="http://www.w3.org/2000/svg" xmlns:xlink="http://www.w3.org/1999/xlink">
    <!-- Generator: Sketch 3.8.3 (29802) - http://www.bohemiancoding.com/sketch -->
    <title>dark gray/icon-ui-dashboard-dark-gray</title>
    <desc>Created with Sketch.</desc>
    <defs></defs>
    <g id="gray" stroke="none" stroke-width="1" fill="none" fill-rule="evenodd">
        <g id="icons,-utility-(gray)" transform="translate(-248.000000, -897.000000)" fill="#242F36">
            <g id="dark-gray/icon-ui-dashboard-dark-gray" transform="translate(248.000000, 897.000000)">
                <g id="Fill-129">
                    <g id="PaaS">
                        <g id="paas">
                            <g id="Features">
                                <g id="PaaS-List">
                                    <g id="HA">
                                        <g id="dash">
                                            <path d="M5.33326822,29.3334636 C3.95679288,26.8456758 2.66666666,22.778859 2.66666666,20 C2.66666666,10.6666664 10.6666667,2.39999998 20.0001628,2.39999998 C29.3336588,2.39999998 37.3332468,10.6666664 37.3332682,20 C37.3332774,24.000001 36.043142,26.8455456 34.6666668,29.3333334 L5.33326822,29.3334636 L5.33326822,29.3334636 Z M22.7540342,19.8084128 C22.9122846,20.173668 23,20.5765906 23,21 C23,22.6568542 21.6568542,24 20,24 C18.3431458,24 17,22.6568542 17,21 C17,19.3431458 18.3431458,18 20,18 C20.4458338,18 20.8689532,18.0972525 21.249301,18.2717004 C22.2722504,16.9264147 26.1344564,11.8655436 27,11 C28,10 30.3718148,11.6281852 29,13.0000001 C28.1523876,13.8476125 23.99992,18.4311481 22.7540342,19.8084128 L22.7540342,19.8084128 Z M20.0002076,0 C8.95435624,0 0,8.94193866 0,19.9715459 C0,23.8918848 1.13232226,27.5493476 3.08679268,30.6337898 C3.577175,31.4079066 4.77551826,32 5.69233804,32 L34.3072468,32 C35.2244818,32 36.4224098,31.4079066 36.9132074,30.6337898 C38.8676778,27.5493476 40,23.8931288 40,19.9727898 C40,8.94318256 31.0456438,0 20.0002076,0 L20.0002076,0 Z" id="Fill-129"></path>
                                        </g>
                                    </g>
                                </g>
                            </g>
                        </g>
                    </g>
                </g>
            </g>
        </g>
    </g>
</svg>

<svg width="40" height="32" viewBox="0 0 40 32" xmlns="http://www.w3.org/2000/svg"><title>dark gray/icon-ui-dashboard-dark-gray</title><path d="M5.333 29.333C3.957 26.846 2.667 22.78 2.667 20c0-9.333 8-17.6 17.333-17.6 9.334 0 17.333 8.267 17.333 17.6 0 4-1.29 6.846-2.666 9.333H5.333zm17.421-9.525a3 3 0 1 1-1.505-1.537C22.272 16.927 26.134 11.867 27 11c1-1 3.372.628 2 2-.848.848-5 5.431-6.246 6.808zM20 0C8.954 0 0 8.942 0 19.972c0 3.92 1.132 7.577 3.087 10.662.49.774 1.689 1.366 2.605 1.366h28.615c.917 0 2.115-.592 2.606-1.366A19.852 19.852 0 0 0 40 19.973C40 8.943 31.046 0 20 0z" fill="#242F36" fill-rule="evenodd"/></svg>
